!!!COM: Kostka, Payne, and Almén
!!!OPR: Tonal Harmony
!!!XEN: Modulation snippets
!!!OTL: 19-6. Beethoven, Symphony no. 4, op. 60, I
!!!ENC: Laurent Feisthauer and Nestor Napoles Lopez
**kern	**kern	**kern	**kern	**text
*staff4	*staff4	*staff3	*staff3	*
*clefF4	*clefF4	*clefG2	*clefG2	*
*k[b-e-]	*k[b-e-]	*k[b-e-]	*k[b-e-]	*
*C:	*C:	*C:	*C:	*
*M2/2	*M2/2	*M2/2	*M2/2	*
=32	=32	=32	=32	=32
1AA	[4A	4c#	1a aa	d=>:V
.	4G A][	4c# e	.	V
.	4F A][	4d f	.	i6
.	8E A][	8e g	.	i
.	8D A]	8f a	.	i
=33	=33	=33	=33	=33
4CC# [AA	4C# A[	4e g	[1a [aa	V65
4AAA AA][	4G A][	4c# e	.	V
4DD AA][	4F A][	4d f	.	i
8CC# AA][	8G A][	8e	.	i
8DD AA]	8F A][	8d	.	i
=34	=34	=34	=34	=34
8AAA AA	8E A	8c#	8a] aa]	V
8r	8r	8r	8r	.
4r	4r	4r	4r	.
8AAA AA	8A	8a	8aa	V
8r	8r	8r	8r	.
4r	4r	4r	4r	.
=35	=35	=35	=35	=35
8AAA AA	8A	8a	8aa	V
8r	8r	8r	8r	.
4r	4r	8a	8aa	V
.	.	8r	8r	.
2r	2r	8a	8aa	V
.	.	8r	8r	.
.	.	8a	8aa	V
.	.	8r	8r	.
=36	=36	=36	=36	=36
16FFF	2F c e-	2f[ a[	2cc[ ee-[ aa[	B-=>:V7
16FF	.	.	.	V7
16FFF	.	.	.	V7
16FF	.	.	.	V7
16FFF	.	.	.	V7
16FF	.	.	.	V7
16FFF	.	.	.	V7
16FF	.	.	.	V7
16FFF	4..F c e-	4..f] a]	4..cc] ee-] aa]	V7
16FF	.	.	.	V7
16FFF	.	.	.	V7
16FF	.	.	.	V7
16FFF	.	.	.	V7
16FF	.	.	.	V7
16FFF	.	.	.	V7
[16FF	16F c e-	16f a	80cc	V7
.	.	.	80dd	V7
.	.	.	80ee-	V7
.	.	.	80ff	V7
.	.	.	80gg	V7
=37	=37	=37	=37	=37
8FFF FF]	8F c e-	8f a	8cc ee- aa	V7
8r	8r	8r	8r	.
4r	4r	4r	4r	.
2r	2r	2r	2r	.
=38	=38	=38	=38	=38
16FFF	[2F [A [c [e-	2f[ a[ cc[	2ee-[ aa[ ccc[ V7
16FF	.	.	.	V7
16FFF	.	.	.	V7
16FF	.	.	.	V7
16FFF	.	.	.	V7
16FF	.	.	.	V7
16FFF	.	.	.	V7
16FF	.	.	.	V7
16FFF	4..F] A] c] e-]	4..f] a] cc]	4..ee-] aa] ccc]	V7
16FF	.	.	.	V7
16FFF	.	.	.	V7
16FF	.	.	.	V7
16FFF	.	.	.	V7
16FF	.	.	.	V7
16FFF	.	.	.	V7
[16FF	16F A c e-	16f a cc	80ee-	V7
.	.	.	80ff	V7
.	.	.	80gg	V7
.	.	.	80aa	V7
.	.	.	80bb-	V7
=39	=39	=39	=39	=39
4FFF FF]	4F A c e-	4f a cc ee-	4ccc	V7
4r	4r	4r	4r	.
2r	2r	2r	4r	.
.	.	.	16ff	V7
.	.	.	16gg	V7
.	.	.	16aa	V7
.	.	.	16bb-	V7
=40	=40	=40	=40	=40
4FFF FF	4F A c e-	4f a cc ee-	4ccc	V7
4r	4r	4r	4r	.
2r	2r	2r	4r	.
.	.	.	16ff	V7
.	.	.	16gg	V7
.	.	.	16aa	V7
.	.	.	16bb-	V7
=41	=41	=41	=41	=41
4FFF FF	4F A c e-	4f a cc ee-	4ccc	V7
4r	4r	4r	8r	.
.	.	.	16aa	V7
.	.	.	16bb-	V7
4FFF FF	4F A c e-	4f a cc ee-	4ccc	V7
4r	4r	4r	8r	.
.	.	.	16aa	V7
.	.	.	16bb-	V7
=42	=42	=42	=42	=42
4FFF FF	4F A c e-	4f a cc ee-	4ccc	V7
4r	4r	4r	8r	.
.	.	.	16aa	V7
.	.	.	16bb-	V7
4FFF FF	4F A c e-	4f a cc ee-	4ccc	V7
4r	4r	4r	8r	.
.	.	.	24aa	V7
.	.	.	24bb-	V7
.	.	.	24ccc	V7
=43	=43	=43	=43	=43
4BBB- BB-	8F B-	4f b- dd	8ddd	I
.	8d	.	8r	I
8BB-	8F B-	4r	8bb-	I
8r	8d	.	8r	I
8BB-	8F B-	2r	8ff	I
8r	8d	.	8r	I
8BB-	8F B-	.	8bb-	I
8r	8d	.	8r	I
==	==	==	==	==
!!!filter: autobeam
*-	*-	*-	*-	*-
